X:1325
T:Mrs Oliphant of Condie's
R:reel
B:Kerr's Merry Melodies Bk.2p14
Z:Nigel Gatherer
M:4/4
L:1/8
K:G
d|B<GG>d B/c/d/B/ GB|E<AA>G Fd|B<GG>d B/c/d/B/ Gg|\
e<gd>c B<GG:|
d|g<ab>g a<eg>d|e<g dc/B/ a<AA>d|g>ab>g a<eg>d|e<gd>c B<GGd|
g<ab>g a<eg>d|e<g dc/B/ a<AA>d|b>ga<e g<d ed/c/|B<gd>c B<GG|]
